src/lib/packages/icons/src/assets/filled/lemon-slice.svg

<svg width="24" height="24" viewBox="0 0 24 24" fill="none" xmlns="http://www.w3.org/2000/svg">
<path d="M16.7699 10.8799C16.6299 12.1599 16.1199 13.3399 15.3499 14.2999L11.9299 10.8799H16.7699ZM5.3899 14.8699C6.4799 15.9499 7.87989 16.6099 9.37989 16.7799V10.8799L5.3899 14.8699ZM10.8799 11.9499V16.7899C12.1599 16.6499 13.3399 16.1399 14.2999 15.3699L10.8799 11.9499ZM10.8799 9.3899H16.7799C16.6099 7.8899 15.9499 6.49988 14.8699 5.39988L10.8799 9.3899ZM18.7099 3.46989C18.2599 2.89989 17.4099 2.85988 16.8999 3.36988L15.9299 4.33988C17.4699 5.89988 18.3199 7.94989 18.3199 10.1299C18.3199 14.6499 14.6499 18.3199 10.1299 18.3199C7.94989 18.3199 5.88988 17.4699 4.33988 15.9299L3.36988 16.8999C2.85988 17.4099 2.89989 18.2599 3.46989 18.7099C5.75989 20.4999 8.78989 21.3799 11.9999 20.8499C16.4899 20.0999 20.0999 16.4799 20.8499 11.9999C21.3899 8.78989 20.4999 5.74989 18.7099 3.46989Z" fill="currentColor"/>
</svg>

<svg xmlns="http://www.w3.org/2000/svg" width="24" height="24" fill="none"><path fill="currentColor" d="M16.77 10.88a6.62 6.62 0 0 1-1.42 3.42l-3.42-3.42h4.84ZM5.39 14.87a6.724 6.724 0 0 0 3.99 1.91v-5.9l-3.99 3.99Zm5.49-2.92v4.84a6.62 6.62 0 0 0 3.42-1.42l-3.42-3.42Zm0-2.56h5.9c-.17-1.5-.83-2.89-1.91-3.99l-3.99 3.99Zm7.83-5.92c-.45-.57-1.3-.61-1.81-.1l-.97.97A8.194 8.194 0 0 1 4.34 15.93l-.97.97c-.51.51-.47 1.36.1 1.81 2.29 1.79 5.32 2.67 8.53 2.14 4.49-.75 8.1-4.37 8.85-8.85.54-3.21-.35-6.25-2.14-8.53Z"/></svg>
